X:1
T:Sweet Hour of Prayer
T:Text: William W. Walford (1772-1850), alt. Tune: William B. Bradbury (1816-1868)
T:LMD SWEET HOUR www.hymnary.org/text/sweet_hour_of_prayer_sweet_hour_of_pray
T:Sweet Hour of Prayer
T:This hymn is in the public domain.  You may freely use this score for personal and congregational worship.  If you reproduce the score, please credit Hymnary.org as the source. 
T:This hymn is in the public domain.  You may freely use this score for personal and congregational worship.  If you reproduce the score, please credit Hymnary.org as the source. 
Z:This hymn is in the public domain.  You may freely use this score for personal and congregational worship.  If you reproduce the score, please credit Hymnary.org as the source.
%%score ( 1 2 ) ( 3 4 )
L:1/8
M:6/8
K:C
V:1 treble nm="Piano" snm="Pno."
V:2 treble 
V:3 bass nm="Piano" snm="Pno."
V:4 bass 
V:1
 C | [CE]2 [DF] [EG]2 [EG] | [FA]2 [GB] [Ac]2 [FA] | [EG]2 [CE] [CE][B,D]C | [B,D]2 [CE] [B,D]2 | %5
w: 3~Sweet|hour of prayer, sweet|hour of prayer, your|wings shall my _ pe-|ti- tion bear|
w: 1~Sweet|hour of prayer, sweet|hour of prayer, that|calls me from _ a|world of care,|
w: 2~Sweet|hour of prayer, sweet|hour of prayer, the|joys I feel, _ the|bliss I share|
 C | [CE]2 [DF] [EG]2 [EG] | [FA]2 [GB] [Ac]2 [FA] | [EG]2 [CE] [CE][B,D]C | [CE]2 [B,D] C2 | %10
w: to|him whose truth and|faith- ful- ness en-|gage the wait- * ing|soul to bless.|
w: and|bids me at my|Fa- ther's throne make|all my wants _ and|wish- es known.|
w: of|those whose anx- ious|spi- rits burn with|strong de- sires _ for|your re- turn!|
 [EG] | [Ec]2 [FB] [Gc]2 [FA] | [EG]2 [CE] [EG]2 [EG] | [Ec]2 [FB] [Gc]2 [FA] | [EG]2 [CE] [B,D]2 | %15
w: And|since he bids me|seek his face, be-|lieve his Word, and|trust his grace,|
w: In|sea- sons of dis-|tress and grief my|soul has of- ten|found re- lief,|
w: With|such I has- ten|to the place where|God my Sa- vior|shows his face,|
 C | [CE]2 [DF] [EG]2 [EG] | [FA]2 [GB] [Ac]2 [FA] | [EG]2 [CE] [CE][B,D]C | [CE]2 [B,D] C2 |] %20
w: I'll|cast on him my|ev- ery care, and|wait for you, _ sweet|hour of prayer.|
w: and|oft es- caped the|temp- ter's snare by|your re- turn, _ sweet|hour of prayer.|
w: and|glad- ly take my|sta- tion there, and|wait for you, _ sweet|hour of prayer.|
V:2
 C | x6 | x6 | x3 x x C | x3 x x | C | x6 | x6 | x3 x x C | x3 C2 | x | x6 | x6 | x6 | x3 x x | C | %16
 x6 | x6 | x3 x x C | x3 C2 |] %20
V:3
 [C,E,] | [C,G,]2 [C,G,] [C,C]2 [C,C] | [F,C]2 [F,C] [F,C]2 [F,C] | [C,C]2 [C,G,] G,F,[C,E,] | %4
 [G,,G,]2 [G,,G,] [G,,G,]2 | [C,E,] | [C,G,]2 [C,G,] [C,C]2 [C,C] | [F,C]2 [F,C] [F,C]2 [F,C] | %8
 [C,C]2 [C,G,] G,F,[C,E,] | [G,,G,]2 [G,,F,] [C,E,]2 | [C,G,] | [C,G,]2 [D,G,] [E,G,]2 [F,C] | %12
 [C,C]2 [C,G,] [C,C]2 [C,G,] | [C,G,]2 [D,G,] [E,G,]2 [F,C] | [C,C]2 [C,G,] [G,,G,]2 | [C,E,] | %16
 [C,G,]2 [C,G,] [C,C]2 [C,C] | [F,C]2 [F,C] [F,C]2 [F,C] | [C,C]2 [C,G,] G,F,[C,E,] | %19
 [G,,G,]2 [G,,F,] [C,E,]2 |] %20
V:4
 x | x6 | x6 | x3 C,2 x | x5 | x | x6 | x6 | x3 C,2 x | x5 | x | x6 | x6 | x6 | x5 | x | x6 | x6 | %18
 x3 C,2 x | x5 |] %20

